!!!OTL@@DE: Reiters Morgenlied
!!!ONB: Volkslied des 18. Jahrh.
!!!ODT: 1827
!!!OMD: M&auml;ssig langsam
!!!LYR: Hauff, Wilhelm
!!!LDT: 1824
!!!OCL: Erk, Ludwig
!!!GCO: Deutscher Liederschatz, Band 1
**kern	**kern	**kern
*staff3	*staff2	*staff1
*Ipiano	*Ipiano	*Ivox
*>[A,A1,A,A2,B,B1,B,B2]	*>[A,A1,A,A2,B,B1,B,B2]	*>[A,A1,A,A2,B,B1,B,B2]
*>norep[A,A2,B,B2]	*>norep[A,A2,B,B2]	*>norep[A,A2,B,B2]
*>A	*>A	*>A
*clefF4	*clefG2	*clefG2
*k[f#]	*k[f#]	*k[f#]
*G:	*G:	*G:
*M3/4	*M3/4	*M3/4
*MM72	*MM72	*MM72
*	*^	*
4G\ 4B\	8.d/L	4d\	8.d/
.	16g/ 16b/Jk	.	16b\
*	*v	*v	*
=1	=1	=1
2D\ 2d\	4g/ (4b/	(4b\
.	&(4f#/&) 4a/)	4a/)
*	*^	*
4D\ 4F#\	8.d/L	4d\	8.d/
.	16a/ 16cc/Jk	.	16cc\
=2	=2	=2	=2
2GG/ 2G/	4a/ (4cc/	2d\	(4cc\
.	4g/ &(4b/&))	.	4b\)
8B\L	8g/L	4d\	8g/
8G\J	8b/J	.	8b\
=3	=3	=3	=3
*^	*	*	*
4.B/	2D\	4.g/ 4.dd/	4d\	4.dd\
.	.	.	4d\	.
8G/	.	8g/ 8b/	.	8b\
8.A/L	4D\	8.cc/L	4d\ 4f#\	8.cc\
16c/Jk	.	16a/Jk	.	16a/
*v	*v	*	*	*
*	*v	*v	*
=4	=4	=4
*>A1	*>A1	*>A1
*	*^	*
4D\	4c/ 4f#/ (4a/	2d\	(4a/
4GG/	&(4B/&) 4g/)	.	4g/)
*	*v	*v	*
=5:|!	=5:|!	=5:|!
*>A2	*>A2	*>A2
*	*^	*
4D\	(4c/ 4f#/ 4a/	2d\	(4a/
4GG/	4B/) 4g/	.	4g/)
*	*v	*v	*
4r	4r	4r
=6!|:	=6!|:	=6!|:
*>B	*>B	*>B
4GG/	8.B/ 8.d/ 8.g/L	8.g/
.	16g/ 16b/k	16b\
4G\ 4d\	8g/ 8b/	8b\
.	8g/ 8b/	8b\
4G\ 4d\	8g/ 8b/	8b\
.	8g/ 8b/J	8b\
=7	=7	=7
*^	*	*
8.B/ (8.d/L	4D\	8.b\ (8.dd\L	(8.dd\L
16A/ 16c/Jk)	.	16a\ 16cc\Jk)	16cc\Jk)
4A/	4D\	4f#/ 4a/	4a/
4ryy	4r	4r	4r
*v	*v	*	*
=8	=8	=8
4DD/	8.d/ 8.f#/ 8.a/L	8.a/
.	16a/ 16cc/k	16cc\
4D\ 4d\	8a/ 8cc/	8cc\
.	8a/ 8cc/	8cc\
4D\ 4d\	8a/ 8cc/	8cc\
.	8a/ 8cc/J	8cc\
=9	=9	=9
*^	*	*
8.c/ (8.e/L	4G\	8.cc\ (8.ee\L	(8.ee\L
16B/ 16d/Jk)	.	16b\ 16dd\Jk)	16dd\Jk)
4B/	4G\	4g/ 4b/	4b\
*	*	*^	*
4ryy	8B\L	8g/L	4d\	8g/
.	8G\J	8b/J	.	8b\
=10	=10	=10	=10	=10
4.B/	2D\	4.g/ 4.dd/	4d\	4.dd\
.	.	.	4d\	.
8G/	.	8g/ 8b/	.	8b\
8.A/L	4D\	8.cc/L	4d\ 4f#\	8.cc\
16c/Jk	.	16a/Jk	.	16a/
*v	*v	*	*	*
*	*v	*v	*
=11	=11	=11
*>B1	*>B1	*>B1
*	*^	*
4D\	4c/ 4f#/ (4a/	2d\	(4a/
4GG/	&(4B/&) 4g/)	.	4g/)
*	*v	*v	*
4r	4r	4r
=12:|!	=12:|!	=12:|!
*>B2	*>B2	*>B2
*	*^	*
4D\	4c/ 4f#/ (4a/	2d\	(4a/
4GG/	&(4B/&) 4g/)	.	4g/)
*	*v	*v	*
==	==	==
*-	*-	*-
!!!ENC: Craig Stuart Sapp
!!!END: 2004/06/27/
!!!EFL: 155/651
